img/icon/google.svg

<svg width="42" height="41" viewBox="0 0 42 41" fill="none" xmlns="http://www.w3.org/2000/svg">
<g clip-path="url(#clip0)">
<rect opacity="0.1" y="0.404175" width="42" height="40" rx="20" fill="#5A7184"/>
<path d="M28.9583 20.925C28.9583 20.425 28.8958 20.05 28.8333 19.6438H21.4583V22.3H25.8333C25.677 23.4563 24.5208 25.6438 21.4583 25.6438C18.802 25.6438 16.6458 23.4563 16.6458 20.7375C16.6458 16.3938 21.7708 14.3938 24.5208 17.05L26.6458 15.0188C25.302 13.7688 23.5208 12.9875 21.4583 12.9875C17.1458 12.9875 13.7083 16.4563 13.7083 20.7375C13.7083 25.05 17.1458 28.4875 21.4583 28.4875C25.927 28.4875 28.9583 25.3625 28.9583 20.925Z" fill="#5A7184"/>
</g>
<defs>
<clipPath id="clip0">
<rect width="42" height="40.0599" fill="white" transform="translate(0 0.404175)"/>
</clipPath>
</defs>
</svg>

<svg xmlns="http://www.w3.org/2000/svg" fill="none" viewBox="0 0 42 41"><g fill="#5A7184" clip-path="url(#clip0)"><rect width="42" height="40" y=".404" opacity=".1" rx="20"/><path d="M28.958 20.925c0-.5-.062-.875-.125-1.281h-7.375V22.3h4.375c-.156 1.156-1.312 3.344-4.375 3.344-2.656 0-4.812-2.188-4.812-4.906 0-4.344 5.125-6.344 7.875-3.688l2.125-2.031a7.517 7.517 0 0 0-5.188-2.031 7.729 7.729 0 0 0-7.75 7.75 7.709 7.709 0 0 0 7.75 7.75c4.469 0 7.5-3.125 7.5-7.563z"/></g><defs><clipPath id="clip0"><path fill="#fff" d="M0 0h42v40.06H0z" transform="translate(0 .404)"/></clipPath></defs></svg>
